public/assets/imgs/page/homepage5/frox.svg

<svg width="268" height="69" viewBox="0 0 268 69" fill="none" xmlns="http://www.w3.org/2000/svg">
<g clip-path="url(#clip0_2_484)">
<path d="M21.1579 48.5699L28.2105 55.6225L21.1579 62.7457L0 41.5172L7.05263 34.4646L14.1053 41.5172L21.1579 34.4646L28.2105 41.5172L21.1579 48.5699Z" fill="#C3C9CB"/>
<path d="M56.4916 41.5172L35.2631 62.7457L28.2105 55.6225L35.2631 48.5699L28.2105 41.5172L35.2631 34.4646L42.3158 41.5172L49.3684 34.4646L56.4916 41.5172Z" fill="#DDE1E2"/>
<path d="M56.4916 27.412L49.3684 34.4647L42.3158 27.412L35.2631 34.4647L28.2105 27.412L35.2631 20.3594L28.2105 13.3068L35.2631 6.25415L56.4916 27.412Z" fill="#C3C9CB"/>
<path d="M21.1579 20.3594L28.2105 27.412L21.1579 34.4647L14.1053 27.412L7.05263 34.4647L0 27.412L21.1579 6.25415L28.2105 13.3068L21.1579 20.3594Z" fill="#DDE1E2"/>
</g>
<path d="M94.6948 17.7624V25.6976H93.7525C93.7525 25.4661 93.7029 25.2347 93.6037 25.0032C93.5045 24.7718 93.3723 24.6561 93.207 24.6561H77.1382V33.4344H90.1321C90.2974 33.4344 90.4296 33.3186 90.5288 33.0872C90.628 32.8558 90.6776 32.6243 90.6776 32.3929H91.6199V40.328H90.6776C90.6776 40.0966 90.628 39.8652 90.5288 39.6337C90.4296 39.4023 90.2974 39.2866 90.1321 39.2866H77.1382V54.5122C77.1382 54.6775 77.254 54.8097 77.4854 54.9089C77.7499 55.0081 78.0144 55.0577 78.2789 55.0577V56H69.5502V55.0577C69.8147 55.0577 70.0627 55.0081 70.2942 54.9089C70.5587 54.8097 70.6909 54.6775 70.6909 54.5122V20.2917C70.6909 20.1264 70.5587 19.9942 70.2942 19.895C70.0627 19.7958 69.8313 19.7462 69.5998 19.7462V18.8039H93.207C93.3723 18.8039 93.5045 18.6882 93.6037 18.4567C93.7029 18.2253 93.7525 17.9938 93.7525 17.7624H94.6948ZM113.22 31.6985V39.6833H112.277C112.277 39.4519 112.228 39.1874 112.129 38.8898C112.029 38.5922 111.897 38.4269 111.732 38.3938H111.385C110.36 38.3938 109.318 38.6914 108.26 39.2866C107.235 39.8486 106.376 40.6091 105.681 41.5679C105.02 42.4937 104.689 43.4856 104.689 44.5436V54.5122C104.689 54.6775 104.805 54.8097 105.036 54.9089C105.301 55.0081 105.549 55.0577 105.78 55.0577V56H97.4485V55.0577C97.6799 55.0577 97.9114 55.0081 98.1428 54.9089C98.4073 54.8097 98.5396 54.6775 98.5396 54.5122V34.6742C98.5396 34.5089 98.4073 34.3767 98.1428 34.2775C97.9114 34.1783 97.6799 34.1287 97.4485 34.1287V33.1864H104.689V35.319C105.582 34.4924 106.657 33.8311 107.913 33.3352C109.169 32.8392 110.426 32.5913 111.682 32.5913H111.732H111.781C111.947 32.5913 112.062 32.4921 112.129 32.2937C112.228 32.0953 112.277 31.8969 112.277 31.6985H113.22ZM128.074 56.5951C125.627 56.5951 123.462 56.0827 121.577 55.0577C119.726 53.9997 118.271 52.5614 117.213 50.743C116.188 48.9245 115.675 46.8746 115.675 44.5932C115.675 42.3449 116.188 40.295 117.213 38.4434C118.271 36.5919 119.742 35.1371 121.627 34.0791C123.511 32.988 125.66 32.4425 128.074 32.4425C130.388 32.4425 132.488 32.9715 134.373 34.0295C136.257 35.0545 137.745 36.4927 138.836 38.3442C139.927 40.1627 140.473 42.2457 140.473 44.5932C140.473 46.6431 139.977 48.5938 138.985 50.4454C138.026 52.2639 136.604 53.7517 134.72 54.9089C132.835 56.0331 130.62 56.5951 128.074 56.5951ZM128.074 50.8917C130.025 50.8917 131.595 50.3297 132.786 49.2055C134.009 48.0483 134.621 46.5605 134.621 44.742C134.621 42.8574 134.009 41.3034 132.786 40.0801C131.595 38.8567 130.025 38.2451 128.074 38.2451C126.256 38.2451 124.735 38.8567 123.511 40.0801C122.288 41.2703 121.676 42.7747 121.676 44.5932C121.676 46.5109 122.288 48.0483 123.511 49.2055C124.735 50.3297 126.256 50.8917 128.074 50.8917ZM168.577 34.1287H168.23C167.801 34.1287 167.519 34.2113 167.387 34.3767L159.502 44.6924L167.189 54.8097C167.321 54.975 167.718 55.0577 168.379 55.0577V56H159.65V55.0577C160.047 55.0577 160.246 54.975 160.246 54.8097C160.246 54.7436 160.179 54.6113 160.047 54.413L155.98 49.0567L151.814 54.4626L151.715 54.6609C151.715 54.7932 151.798 54.9089 151.963 55.0081C152.129 55.0742 152.36 55.1073 152.658 55.1073V56H143.433V55.0577H143.681C144.144 55.0577 144.458 54.975 144.623 54.8097L152.36 44.5932L144.574 34.3767C144.441 34.2113 144.045 34.1287 143.383 34.1287V33.1864H152.062V34.0791C151.666 34.0791 151.467 34.1618 151.467 34.3271C151.467 34.4263 151.517 34.5585 151.616 34.7238L155.832 40.2784L160.146 34.7238L160.246 34.5254C160.246 34.3932 160.146 34.294 159.948 34.2279C159.783 34.1287 159.551 34.0791 159.254 34.0791V33.1864H168.577V34.1287Z" fill="#C3C9CB"/>
<defs>
<clipPath id="clip0_2_484">
<rect width="56.4916" height="56.4916" fill="white" transform="translate(0 6.25415)"/>
</clipPath>
</defs>
</svg>

<svg width="268" height="69" fill="none" xmlns="http://www.w3.org/2000/svg"><g clip-path="url(#a)"><path d="m21.158 48.57 7.052 7.053-7.052 7.123L0 41.517l7.053-7.052 7.052 7.052 7.053-7.052 7.052 7.052-7.052 7.053Z" fill="#C3C9CB"/><path d="M56.492 41.517 35.263 62.746l-7.052-7.123 7.052-7.053-7.052-7.053 7.052-7.052 7.053 7.052 7.052-7.052 7.124 7.052Z" fill="#DDE1E2"/><path d="m56.492 27.412-7.124 7.053-7.052-7.053-7.053 7.053-7.052-7.053 7.052-7.053-7.052-7.052 7.052-7.053 21.229 21.158Z" fill="#C3C9CB"/><path d="m21.158 20.36 7.052 7.052-7.052 7.053-7.053-7.053-7.052 7.053L0 27.412 21.158 6.254l7.052 7.053-7.052 7.052Z" fill="#DDE1E2"/></g><path d="M94.695 17.762v7.936h-.942c0-.232-.05-.463-.15-.695-.099-.231-.23-.347-.396-.347H77.138v8.778h12.994c.165 0 .298-.115.397-.347.099-.231.149-.463.149-.694h.942v7.935h-.942c0-.231-.05-.463-.15-.694-.098-.232-.23-.347-.396-.347H77.138v15.225c0 .166.116.298.347.397.265.1.53.149.794.149V56H69.55v-.942c.265 0 .513-.05.744-.15.265-.098.397-.23.397-.396v-34.22c0-.166-.132-.298-.397-.397a1.75 1.75 0 0 0-.694-.149v-.942h23.607c.165 0 .297-.116.397-.347.099-.232.148-.463.148-.695h.943Zm18.525 13.936v7.985h-.943a2.55 2.55 0 0 0-.148-.793c-.1-.298-.232-.463-.397-.496h-.347c-1.025 0-2.067.297-3.125.893a7.757 7.757 0 0 0-2.579 2.28c-.661.927-.992 1.919-.992 2.977v9.968c0 .166.116.298.347.397.265.1.513.149.744.149V56h-8.332v-.942c.232 0 .463-.05.695-.15.264-.098.397-.23.397-.396V34.674c0-.165-.133-.297-.397-.396a1.75 1.75 0 0 0-.695-.15v-.942h7.241v2.133c.893-.827 1.968-1.488 3.224-1.984 1.256-.496 2.513-.744 3.769-.744h.099c.166 0 .281-.099.348-.297.099-.199.148-.397.148-.595h.943Zm14.854 24.897c-2.447 0-4.612-.512-6.497-1.537a11.636 11.636 0 0 1-4.364-4.315c-1.025-1.819-1.538-3.868-1.538-6.15 0-2.248.513-4.298 1.538-6.15 1.058-1.851 2.529-3.306 4.414-4.364 1.884-1.091 4.033-1.636 6.447-1.636 2.314 0 4.414.529 6.299 1.587a11.43 11.43 0 0 1 4.463 4.314c1.091 1.819 1.637 3.902 1.637 6.25 0 2.05-.496 4-1.488 5.851-.959 1.819-2.381 3.307-4.265 4.464-1.885 1.124-4.1 1.686-6.646 1.686Zm0-5.703c1.951 0 3.521-.562 4.712-1.687 1.223-1.157 1.835-2.645 1.835-4.463 0-1.885-.612-3.439-1.835-4.662-1.191-1.223-2.761-1.835-4.712-1.835-1.818 0-3.339.612-4.563 1.835-1.223 1.19-1.835 2.695-1.835 4.513 0 1.918.612 3.455 1.835 4.612 1.224 1.125 2.745 1.687 4.563 1.687Zm40.503-16.763h-.347c-.429 0-.711.082-.843.248l-7.885 10.315 7.687 10.118c.132.165.529.248 1.19.248V56h-8.729v-.942c.397 0 .596-.083.596-.248 0-.066-.067-.199-.199-.397l-4.067-5.356-4.166 5.406-.099.198c0 .132.083.248.248.347.166.066.397.1.695.1V56h-9.225v-.942h.248c.463 0 .777-.083.942-.248l7.737-10.217-7.786-10.216c-.133-.166-.529-.248-1.191-.248v-.943h8.679v.893c-.396 0-.595.083-.595.248 0 .1.05.232.149.397l4.216 5.554 4.314-5.554.1-.199c0-.132-.1-.231-.298-.297-.165-.1-.397-.149-.694-.149v-.893h9.323v.943Z" fill="#C3C9CB"/><defs><clipPath id="a"><path fill="#fff" transform="translate(0 6.254)" d="M0 0h56.492v56.492H0z"/></clipPath></defs></svg>
